svg/black/abt.svg

<svg height="32" viewBox="0 0 32 32" width="32" xmlns="http://www.w3.org/2000/svg"><path d="m16 32c-8.836556 0-16-7.163444-16-16s7.163444-16 16-16 16 7.163444 16 16-7.163444 16-16 16zm-9.5-21.5134474v11.0268948l9.5 5.4865526 9.5-5.4865526v-11.0268948l-9.5-5.4865526zm.91242938 9.970021v-8.912933l5.74294512 3.3229444-1.9334777 3.3857801zm.45621537.7919153 3.66420965-2.1201605 4.0377671 2.312343v4.2559543zm16.71892585-9.6737928v8.850822l-3.7598807-2.175517-1.9315906-3.382144zm-.4291688-.8075647-5.7155555 3.3070963-1.9597955-3.4315298v-4.30832614zm-6.0477828 4.555215 1.1531254 2.0227351-2.3244789-1.3449744zm-.4526371-.7939857-1.1749311.6798307v-2.7408157zm-4.8638939 2.8143137 1.1511736-2.0190502 1.1691452.6764829zm-.3464435 1.2563443 3.122977-1.806996v3.5954582zm-4.57918501-7.8474006 7.70216201-4.44824381v4.33378761l-1.9620274 3.4357744zm16.28975701 10.4813575-7.6751657 4.4326526v-4.1956136l4.0390481-2.340945zm-4.5481671-2.6316299-3.1269986 1.8123408v-3.6216638zm-5.2121066-4.0716817 1.1726787-2.056768v2.7352954z" fill-rule="evenodd"/></svg>

<svg xmlns="http://www.w3.org/2000/svg" width="32" height="32" viewBox="0 0 32 32">
  <path fill-rule="evenodd" d="M16,32 C7.163444,32 0,24.836556 0,16 C0,7.163444 7.163444,0 16,0 C24.836556,0 32,7.163444 32,16 C32,24.836556 24.836556,32 16,32 Z M6.5,10.4865526 L6.5,21.5134474 L16,27 L25.5,21.5134474 L25.5,10.4865526 L16,5 L6.5,10.4865526 Z M7.41242938,20.4565736 L7.41242938,11.5436406 L13.1553745,14.866585 L11.2218968,18.2523651 L7.41242938,20.4565736 Z M7.86864475,21.2484889 L11.5328544,19.1283284 L15.5706215,21.4406714 L15.5706215,25.6966257 L7.86864475,21.2484889 Z M24.5875706,11.5746961 L24.5875706,20.4255181 L20.8276899,18.2500011 L18.8960993,14.8678571 L24.5875706,11.5746961 Z M24.1584018,10.7671314 L18.4428463,14.0742277 L16.4830508,10.6426979 L16.4830508,6.33437176 L24.1584018,10.7671314 Z M18.110619,15.3223464 L19.2637444,17.3450815 L16.9392655,16.0001071 L18.110619,15.3223464 Z M17.6579819,14.5283607 L16.4830508,15.2081914 L16.4830508,12.4673757 L17.6579819,14.5283607 Z M12.794088,17.3426744 L13.9452616,15.3236242 L15.1144068,16.0001071 L12.794088,17.3426744 Z M12.4476445,18.5990187 L15.5706215,16.7920227 L15.5706215,20.3874809 L12.4476445,18.5990187 Z M7.86845949,10.7516181 L15.5706215,6.30337429 L15.5706215,10.6371619 L13.6085941,14.0729363 L7.86845949,10.7516181 Z M24.1582165,21.2329756 L16.4830508,25.6656282 L16.4830508,21.4700146 L20.5220989,19.1290696 L24.1582165,21.2329756 Z M19.6100494,18.6013457 L16.4830508,20.4136865 L16.4830508,16.7920227 L19.6100494,18.6013457 Z M14.3979428,14.529664 L15.5706215,12.472896 L15.5706215,15.2081914 L14.3979428,14.529664 Z"/>
</svg>
